X: 071
T: Weel all carry Arms
%R: jig
B: Thompson's Twenty four Country Dances (for the Year 1804) p.7 #1
S: http://folkopedia.efdss.org/images/2/28/Thompson24_1804.PDF  2014-8-2
Z: 2014 John Chambers <jc:trillian.mit.edu>
M: 6/8
N: In bar 14 the first half is actually dg/^f/ which is missing a count.
L: 1/8
K: Gm
G |\
BAG d2b | bag ^f2d | edc BAG | ^FAF D2B |\
dcB =f2b | a2g f2e | dcB FBA | B3 B2 :|
|: d |\
ded e2g | fgf d2d | edc BAG | dA^F D2d/c/ |\
B2e/d/ c2f/e/ |dg^f g=fe | deG cd^F | G3 G2 :|
% - - - - - - - - - - - - - - - - - - - - - - - - -
%%begintext align
%% Change sides and back again lead down the
%% middle up again and cast off Allemande
%% hands six round.
%%endtext
% - - - - - - - - - - - - - - - - - - - - - - - - -
